material/.icons/material/cards-outline.svg

<svg xmlns="http://www.w3.org/2000/svg" viewBox="0 0 24 24"><path d="M11.19 2.25c-.26 0-.52.06-.77.15L3.06 5.45a1.994 1.994 0 00-1.09 2.6L6.93 20a2 2 0 001.81 1.25c.26 0 .53-.03.79-.15l7.37-3.05a2.02 2.02 0 001.23-1.8c.01-.25-.04-.54-.13-.8L13 3.5a1.954 1.954 0 00-1.81-1.25m3.48 0l3.45 8.35V4.25a2 2 0 00-2-2m4.01 1.54v9.03l2.43-5.86a1.99 1.99 0 00-1.09-2.6m-10.28-.14l4.98 12.02-7.39 3.06L3.8 7.29"/></svg>

<?xml version="1.0" encoding="UTF-8"?><!DOCTYPE svg PUBLIC "-//W3C//DTD SVG 1.1//EN" "http://www.w3.org/Graphics/SVG/1.1/DTD/svg11.dtd"><svg xmlns="http://www.w3.org/2000/svg" xmlns:xlink="http://www.w3.org/1999/xlink" version="1.1" id="mdi-cards-outline" width="24" height="24" viewBox="0 0 24 24"><path d="M11.19,2.25C10.93,2.25 10.67,2.31 10.42,2.4L3.06,5.45C2.04,5.87 1.55,7.04 1.97,8.05L6.93,20C7.24,20.77 7.97,21.23 8.74,21.25C9,21.25 9.27,21.22 9.53,21.1L16.9,18.05C17.65,17.74 18.11,17 18.13,16.25C18.14,16 18.09,15.71 18,15.45L13,3.5C12.71,2.73 11.97,2.26 11.19,2.25M14.67,2.25L18.12,10.6V4.25A2,2 0 0,0 16.12,2.25M20.13,3.79V12.82L22.56,6.96C22.97,5.94 22.5,4.78 21.47,4.36M11.19,4.22L16.17,16.24L8.78,19.3L3.8,7.29" /></svg>
